client/src/assets/generatedImages/sprite/HEADPHONE.svg

<svg viewBox="0 0 24 24"><path d="M12 2.00305C6.486 2.00305 2 6.48805 2 12.0031V20.0031C2 21.1071 2.895 22.0031 4 22.0031H6C7.104 22.0031 8 21.1071 8 20.0031V17.0031C8 15.8991 7.104 15.0031 6 15.0031H4V12.0031C4 7.59105 7.589 4.00305 12 4.00305C16.411 4.00305 20 7.59105 20 12.0031V15.0031H18C16.896 15.0031 16 15.8991 16 17.0031V20.0031C16 21.1071 16.896 22.0031 18 22.0031H20C21.104 22.0031 22 21.1071 22 20.0031V12.0031C22 6.48805 17.514 2.00305 12 2.00305Z"/></svg>

<svg viewBox="0 0 24 24"><path d="M12 2A10 10 0 0 0 2 12v8c0 1.1.9 2 2 2h2a2 2 0 0 0 2-2v-3a2 2 0 0 0-2-2H4v-3a8 8 0 0 1 16 0v3h-2a2 2 0 0 0-2 2v3c0 1.1.9 2 2 2h2a2 2 0 0 0 2-2v-8A10 10 0 0 0 12 2Z"/></svg>
